src/icons/icon_start.svg

<svg height="75" viewBox="0 0 75 75" width="75" xmlns="http://www.w3.org/2000/svg"><g fill="none" fill-rule="evenodd"><rect fill="#fff" fill-rule="evenodd" height="75" rx="37.5" width="75"/><rect height="74" rx="37" stroke="#9b9b9b" width="74" x=".5" y=".5"/><g fill="#000" fill-rule="nonzero"><circle cx="21" cy="54" r="1"/><circle cx="39" cy="37" r="1"/><path d="m47.12232 27.8788914c-.5668932-.5668274-1.3206202-.8788914-2.12232-.8788914s-1.555497.3122045-2.12232.8788914c-1.17024 1.1700295-1.17024 3.0737325 0 4.2436918.5852254.5850148 1.3536322.8774168 2.12232.8774168.7684771 0 1.5372351-.2925425 2.12232-.8774168 1.17024-1.1700295 1.17024-3.0737325 0-4.2436918zm-.9971729 3.2466177c-.6204148.6201957-1.6299496.6201957-2.2502239 0-.6204148-.6201957-.6204148-1.6294181 0-2.249684.3005496-.3004775.7000649-.4659192 1.1250768-.4659192s.8245272.1654417 1.1250768.4659192c.6204148.6202659.6204148 1.6294883.0000703 2.249684z"/><path d="m28.6049419 48.1884659c-.3523244-.1754527-.7800251-.0320102-.9554776.3202437l-.8487297 1.7044887c-.3690747.7410604-1.1113406 1.2366149-1.9373581 1.2931118l-.9871328.0675691c-.1668643.0111432-.276593-.0719697-.3273408-.1227175s-.1340735-.1606897-.1227173-.3274123l.067569-.9870632c.0565678-.8259478.5521215-1.5682858 1.2931099-1.937361l1.7044152-.848731c.3523243-.1754527.4956956-.603225.3202432-.9554789-.1753814-.3522539-.6031532-.4956964-.9554775-.3202437l-1.7044152.848731c-1.1918272.5935013-1.9887446 1.7873177-2.0797357 3.1157045l-.067569.9870632c-.0364817.5328169.1591279 1.0549163.5367197 1.4325087.3476399.3476404.8178552.541121 1.3061694.541121.0419468 0 .0841774-.0014195.1263371-.0043295l.9871328-.0675692c1.3283848-.0909202 2.5221994-.8877678 3.1156999-2.0797388l.8487297-1.7044177c.1754524-.3523248.0320811-.7800262-.3201722-.9554789z"/><path d="m54.5264438 20.4598581c-.322054-.3191279-.7657243-.4860151-1.2163676-.4565158l-.6390493.0409825c-5.7300464.3679495-11.0925779 3.1500211-14.7125584 7.632939l-1.5042406 1.8627138-3.9364972-.1162778c-.0066995-.0002063-.0134673-.0002751-.0200985-.0002751-3.1219623 0-6.0570908 1.2228765-8.2647095 3.4433629l-4.0318624 4.0555575c-.1917558.1928794-.2526665.4813391-.1553188.7358988.0973477.2546284.3345643.427773.6054151.441663l8.5346033.4410442-.3479633.4309361c-.1753489.2172215-.2031039.519365-.0701396.765123.1337164.2472708.2738588.4906221.420017.730054l-2.0239295 2.4168039c-.1730246.206632-.210282.4958481-.0955019.7400934.4420979.9396428 1.0288502 1.7839117 1.7441916 2.5093585.7327055.7431877 1.5894882 1.3509128 2.5464215 1.8064659.0935194.0445583.1938067.0663561.2934787.0663561.1545668 0 .3078347-.0525348.4325272-.1542349.4360138-.3557784.9386806-.7777753 1.4248722-1.1858134.3465277-.2908663.7010537-.5884027 1.032405-.862766.1977717.1197159.3980044.2357874.6012451.3469767.1028166.056248.2155458.0839593.3278648.0839593.1494396 0 .2979222-.048959.4208373-.1449518l.4678022-.3651301.4403889 8.6207844c.0139459.2724379.1860134.5110446.43909.6089628.0801205.0309432.1633856.046071.2461038.046071.178767 0 .3543209-.0703443.4854395-.2023l4.0319308-4.0555575c2.2076187-2.2205551 3.4233026-5.1728144 3.4233026-8.3131399v-3.7816067l1.590582-1.2415113c4.7668238-3.7207517 7.6699589-9.3313785 7.9650099-15.3933639l.0163386-.3359748c.022286-.4541091-.1497131-.8974912-.4716305-1.2166878zm-32.2633079 16.3409144 2.9403925-2.9576228c1.9459284-1.9573313 4.5326151-3.0363562 7.2841913-3.039038l2.8770208.0849908-5.1073357 6.3247966zm10.3671873 8.8052061c-.358286.3006307-.7255958.6089628-1.0664495.8909588-.6592845-.3591478-1.2556758-.8072745-1.7768688-1.3359225-.504786-.5119385-.9344421-1.0948403-1.2809014-1.7369467l1.4818178-1.7694715c.4480455.6046307.9384755 1.1773556 1.4682821 1.7139112.0004101.0004126.0008203.0007564.0012305.001169.0001367.0001375.0002734.0003438.0004102.0004813.000205.0002063.0004101.0003438.0006152.0005501.5874359.5946602 1.2193072 1.1403612 1.889598 1.6338714-.2366697.1976241-.4791503.4011618-.7177341.6013989zm11.4233823-3.176976c0 2.7714821-1.0729438 5.3770398-3.0213333 7.3368466l-2.9403924 2.9576228-.4103096-8.0309376 6.3719669-4.9736088v2.710077zm9.5572325-20.4839382c-.275431 5.658967-2.9855798 10.8966248-7.4355451 14.3700369l-10.7643029 8.4020502c-.8926728-.5246597-1.7247085-1.1441432-2.4861944-1.8460045l3.6290727-3.6503387c.2679796-.2695499.2679796-.7067434 0-.9763621-.268048-.2696187-.7026261-.2696187-.970674 0l-3.6256546 3.6469006c-.6665993-.7422938-1.2569747-1.5499809-1.7596416-2.4138472l8.8259628-10.9297683c3.3792774-4.1848315 8.3853003-6.7820001 13.7344329-7.1254012l.6390493-.0409826c.0837436-.005226.1398005.0365818.1656414.0621615.0257726.025511.0683622.0810025.0642604.1656495z"/></g></g></svg>

<?xml version="1.0" encoding="UTF-8"?>
<svg width="75px" height="75px" viewBox="0 0 75 75" version="1.1" xmlns="http://www.w3.org/2000/svg" xmlns:xlink="http://www.w3.org/1999/xlink">
    <!-- Generator: sketchtool 46.2 (44496) - http://www.bohemiancoding.com/sketch -->
    <title>C7F09D1B-27FF-46E9-B874-EB074151F7A4</title>
    <desc>Created with sketchtool.</desc>
    <defs>
        <rect id="path-1" x="0" y="0" width="75" height="75" rx="37.5"></rect>
    </defs>
    <g id="Symbols" stroke="none" stroke-width="1" fill="none" fill-rule="evenodd">
        <g id="icon_startuphome">
            <g id="icon_start">
                <g id="Rectangle-3">
                    <use fill="#FFFFFF" fill-rule="evenodd" xlink:href="#path-1"></use>
                    <rect stroke="#9B9B9B" stroke-width="1" x="0.5" y="0.5" width="74" height="74" rx="37"></rect>
                </g>
                <circle id="Oval" fill="#000000" fill-rule="nonzero" cx="21" cy="54" r="1"></circle>
                <circle id="Oval" fill="#000000" fill-rule="nonzero" cx="39" cy="37" r="1"></circle>
                <path d="M47.12232,27.8788914 C46.5554268,27.312064 45.8016998,27 45,27 C44.1983002,27 43.444503,27.3122045 42.87768,27.8788914 C41.70744,29.0489209 41.70744,30.9526239 42.87768,32.1225832 C43.4629054,32.707598 44.2313122,33 45,33 C45.7684771,33 46.5372351,32.7074575 47.12232,32.1225832 C48.29256,30.9525537 48.29256,29.0488507 47.12232,27.8788914 Z M46.1251471,31.1255091 C45.5047323,31.7457048 44.4951975,31.7457048 43.8749232,31.1255091 C43.2545084,30.5053134 43.2545084,29.496091 43.8749232,28.8758251 C44.1754728,28.5753476 44.5749881,28.4099059 45,28.4099059 C45.4250119,28.4099059 45.8245272,28.5753476 46.1250768,28.8758251 C46.7454916,29.496091 46.7454916,30.5053134 46.1251471,31.1255091 Z" id="Shape" fill="#000000" fill-rule="nonzero"></path>
                <path d="M28.6049419,48.1884659 C28.2526175,48.0130132 27.8249168,48.1564557 27.6494643,48.5087096 L26.8007346,50.2131983 C26.4316599,50.9542587 25.689394,51.4498132 24.8633765,51.5063101 L23.8762437,51.5738792 C23.7093794,51.5850224 23.5996507,51.5019095 23.5489029,51.4511617 C23.4981551,51.4004139 23.4148294,51.290472 23.4261856,51.1237494 L23.4937546,50.1366862 C23.5503224,49.3107384 24.0458761,48.5684004 24.7868645,48.1993252 L26.4912797,47.3505942 C26.843604,47.1751415 26.9869753,46.7473692 26.8115229,46.3951153 C26.6361415,46.0428614 26.2083697,45.8994189 25.8560454,46.0748716 L24.1516302,46.9236026 C22.959803,47.5171039 22.1628856,48.7109203 22.0718945,50.0393071 L22.0043255,51.0263703 C21.9678438,51.5591872 22.1634534,52.0812866 22.5410452,52.458879 C22.8886851,52.8065194 23.3589004,53 23.8472146,53 C23.8891614,53 23.931392,52.9985805 23.9735517,52.9956705 L24.9606845,52.9281013 C26.2890693,52.8371811 27.4828839,52.0403335 28.0763844,50.8483625 L28.9251141,49.1439448 C29.1005665,48.79162 28.9571952,48.3639186 28.6049419,48.1884659 Z" id="Shape" fill="#000000" fill-rule="nonzero"></path>
                <path d="M54.5264438,20.4598581 C54.2043898,20.1407302 53.7607195,19.973843 53.3100762,20.0033423 L52.6710269,20.0443248 C46.9409805,20.4122743 41.578449,23.1943459 37.9584685,27.6772638 L36.4542279,29.5399776 L32.5177307,29.4236998 C32.5110312,29.4234935 32.5042634,29.4234247 32.4976322,29.4234247 C29.3756699,29.4234247 26.4405414,30.6463012 24.2329227,32.8667876 L20.2010603,36.9223451 C20.0093045,37.1152245 19.9483938,37.4036842 20.0457415,37.6582439 C20.1430892,37.9128723 20.3803058,38.0860169 20.6511566,38.0999069 L29.1857599,38.5409511 L28.8377966,38.9718872 C28.6624477,39.1891087 28.6346927,39.4912522 28.767657,39.7370102 C28.9013734,39.984281 29.0415158,40.2276323 29.187674,40.4670642 L27.1637445,42.8838681 C26.9907199,43.0905001 26.9534625,43.3797162 27.0682426,43.6239615 C27.5103405,44.5636043 28.0970928,45.4078732 28.8124342,46.13332 C29.5451397,46.8765077 30.4019224,47.4842328 31.3588557,47.9397859 C31.4523751,47.9843442 31.5526624,48.006142 31.6523344,48.006142 C31.8069012,48.006142 31.9601691,47.9536072 32.0848616,47.8519071 C32.5208754,47.4961287 33.0235422,47.0741318 33.5097338,46.6660937 C33.8562615,46.3752274 34.2107875,46.077691 34.5421388,45.8033277 C34.7399105,45.9230436 34.9401432,46.0391151 35.1433839,46.1503044 C35.2462005,46.2065524 35.3589297,46.2342637 35.4712487,46.2342637 C35.6206883,46.2342637 35.7691709,46.1853047 35.892086,46.0893119 L36.3598882,45.7241818 L36.8002771,54.3449662 C36.814223,54.6174041 36.9862905,54.8560108 37.2393671,54.953929 C37.3194876,54.9848722 37.4027527,55 37.4854709,55 C37.6642379,55 37.8397918,54.9296557 37.9709104,54.7977 L42.0028412,50.7421425 C44.2104599,48.5215874 45.4261438,45.5693281 45.4261438,42.4290026 L45.4261438,38.6473959 L47.0167258,37.4058846 C51.7835496,33.6851329 54.6866847,28.0745061 54.9817357,22.0125207 L54.9980743,21.6765459 C55.0203603,21.2224368 54.8483612,20.7790547 54.5264438,20.4598581 Z M22.2631359,36.8007725 L25.2035284,33.8431497 C27.1494568,31.8858184 29.7361435,30.8067935 32.4877197,30.8041117 L35.3647405,30.8891025 L30.2574048,37.2138991 L22.2631359,36.8007725 Z M32.6303232,45.6059786 C32.2720372,45.9066093 31.9047274,46.2149414 31.5638737,46.4969374 C30.9045892,46.1377896 30.3081979,45.6896629 29.7870049,45.1610149 C29.2822189,44.6490764 28.8525628,44.0661746 28.5061035,43.4240682 L29.9879213,41.6545967 C30.4359668,42.2592274 30.9263968,42.8319523 31.4562034,43.3685079 C31.4566135,43.3689205 31.4570237,43.3692643 31.4574339,43.3696769 C31.4575706,43.3698144 31.4577073,43.3700207 31.4578441,43.3701582 C31.4580491,43.3703645 31.4582542,43.370502 31.4584593,43.3707083 C32.0458952,43.9653685 32.6777665,44.5110695 33.3480573,45.0045797 C33.1113876,45.2022038 32.868907,45.4057415 32.6303232,45.6059786 Z M44.0537055,42.4290026 C44.0537055,45.2004847 42.9807617,47.8060424 41.0323722,49.7658492 L38.0919798,52.723472 L37.6816702,44.6925344 L44.0536371,39.7189256 L44.0536371,42.4290026 L44.0537055,42.4290026 Z M53.610938,21.9450644 C53.335507,27.6040314 50.6253582,32.8416892 46.1753929,36.3151013 L35.41109,44.7171515 C34.5184172,44.1924918 33.6863815,43.5730083 32.9248956,42.871147 L36.5539683,39.2208083 C36.8219479,38.9512584 36.8219479,38.5140649 36.5539683,38.2444462 C36.2859203,37.9748275 35.8513422,37.9748275 35.5832943,38.2444462 L31.9576397,41.8913468 C31.2910404,41.149053 30.700665,40.3413659 30.1979981,39.4774996 L39.0239609,28.5477313 C42.4032383,24.3628998 47.4092612,21.7657312 52.7583938,21.4223301 L53.3974431,21.3813475 C53.4811867,21.3761215 53.5372436,21.4179293 53.5630845,21.443509 C53.5888571,21.46902 53.6314467,21.5245115 53.6273449,21.6091585 L53.610938,21.9450644 Z" id="Shape" fill="#000000" fill-rule="nonzero"></path>
            </g>
        </g>
    </g>
</svg>
